X:1
T:Jeanie with the light brown hair
T:Jeanie With The Light Brown Hair
T:Stephen Foster Arranged by  Patrick A. 
C:Stephen Foster
%%score { 1 | 2 }
L:1/8
Q:1/4=70
M:4/4
K:Eb
V:1 treble nm="Piano" snm="Pno."
V:2 bass 
V:1
 !arpeggio![DFc]4 | B3 G AG FE | G2 B,C E4 | E2 FG e2 c2 | %4
[Q:1/4=55]"^rit." !arpeggio![EGB]>G FE !arpeggio!F2 Dc/E/ |[Q:1/4=70] B3 G/C/ AG FE | G2 B,C E4 | %7
 !arpeggio!F=A Bc/F/ !arpeggio!de G>c | %8
[Q:1/4=63]"^rit." !arpeggio![DFB]2 !arpeggio![CE=A]>A !arpeggio![DFB]4 | %9
[Q:1/4=70] !arpeggio![DF]G FE [DF]2 GF | ED EG [EB]4 | cB c>e B3 G/F/ | E2 CB, !arpeggio!B,3 c/E/ | %13
 B3 G/C/ AG FE | G2 B,C E4 | %15
[Q:1/4=63]"^ritardando -     -    -    -    -     -     -     -     -    -" FG !arpeggio![FAe]4- [FAe]c/E/ | %16
[Q:1/4=57] Bc EF/E/ G2 !arpeggio![DG]F | [G,B,E]8 |] %18
V:2
 !arpeggio![B,,F,A,]4 |!ped! E,,B,, G,2!ped-up!!ped! A,,E, A,2!ped-up! |!ped! E,,B,, G,6!ped-up! | %3
!ped! C,G, C2!ped-up!!ped! A,, F,3!ped-up! | %4
!ped! E,B, F,2!ped-up!!ped! !arpeggio![B,,A,] A,3!ped-up! | %5
!ped! E,,B,, G,2!ped-up!!ped! A,,E, A,2!ped-up! |!ped! E,,B,, G,4 G,2!ped-up! | %7
!ped! !arpeggio![F,E]4!ped-up!!ped! !arpeggio![B,,A,]4!ped-up! | %8
!ped! B,,B, F,2!ped-up!!ped! B,,F, B,2!ped-up! | %9
!ped! !arpeggio!B,,A,- A,2!ped-up!!ped! B,,A,- A,2!ped-up! |!ped! E,,B,, G,3 E, G,2!ped-up! | %11
!ped! A,,E,-E,A,!ped-up!!ped! G,,E, G,2!ped-up! | %12
!ped! C,G,- G,2!ped-up!!ped! !arpeggio![B,,A,]2 A,2!ped-up! | %13
!ped! E,,B,, G,2!ped-up!!ped! A,,E, A,2!ped-up! |!ped! E,,B,, G,4 G,2!ped-up! | %15
!ped! C,2 F,2 E4!ped-up! |!ped! E,B, A,,2!ped-up!!ped! E,B, !arpeggio![B,,A,]2!ped-up! | %17
 [E,,B,,E,]8 |] %18

